X:1
T:Mauldicte soit la mondaine
T:Claudin de Sermisy
T:Source : Second livre contenant 31 chansons à 4, eslevées de plusieurs livres---Paris---P.Attaignant---1535. Editor : André Vierendeels (04/05/18) Notes : Original clefs : C1, C3, C3, F4 Original note values have been halved Editorial accidentals above the staff Square brackets indicate ligatures
T:Mauldicte soit la mondaine
T:©
T:©
T:©
T:©
C:Claudin de Sermisy
Z:©
%%score [ 1 2 3 4 ]
L:1/8
Q:1/4=120
M:2/2
K:F
V:1 treble nm="Soprano" snm="S"
V:2 treble nm="Alto" snm="A"
V:3 treble-8 nm="Tenor" snm="T"
V:4 bass nm="Bass" snm="B"
V:1
 F4 F2 F2 | D4 z2 F2 | F2 F2 G2 G2 | A2 c4 B2 | c3 B/A/ G4 | z4 z2 F2 | G2 A2 B2 B2 | %7
w: Maul- dic- te|soit la|mon- dai- ne ri-|ches- * *|* * * se,|qui|m'a os- té ma|
 A2 G2 F2 G2- | GF F4 E2 | F2 A4 A2 | GFGA B4 | A4 z2 A2 | G2 E2 F4 | FEFG A2 B2- | BA A4 G2 | %15
w: da- me et ma|_ mais- tres- *|se, las, par|ver- * * * *|tu, iay|son a- mi-|ty- * * * * é|_ _ qui- *|
 A4 z2 F2 | F2 F2 B2 B2 | A2 A2 G2 A2- | A2 G4 F2 |"^b" G2 E2 F4 | E4 z4 | z4 z2 F2 | G2 A2 B2 B2 | %23
w: te, mais,|par ri- ches- se'ung|aul- tre l'a con-|* qui- *||se,|ver-|tu n'a pas, en|
 A2 G2 F2 G2- | GF F4 E2 | F2 A3 B c2 | B2 A2 G4 | z4 z2 F2 | G2 A2 B2 B2 | A2 G2 F2 G2- | %30
w: a- mour, grant prou-|* * es- *||* * se,|ver-|tu n'a pas, en|a- mour, grant prou-|
 GF F4 E2 | F8 |] %32
w: * * es- *|se.|
V:2
 C4 C2 C2 | B,4 D4 | D2 D2 E2 E2 | C3 D/E/ F4 | E2 C2 D2 E2 | F3 E/D/ C2 D2- | D2 F4 F2 | %7
w: Maul- dic- te|soit la|mon- dai- ne ri-|ches- * * se,|qui m'a os- té|_ _ _ _ ma|_ da- me|
 F2 E2 D4- | D2 B,2 C4 | z2 C2 F4 | E4 D4 | z2 F2 E2 C2 | E4 D4 | D4 E2 F2- | F2 E2 D4 | D4 z2 D2 | %16
w: et mais- tres-|* * se,|las, par|ver- tu,|iay son a-|mi- ty-|é qui- *||te, mais,|
 D2 D2 F4- |"^b" F2 F2 E2 F2- | FEDC D2 A,2 | B,2 C4 B,2 | C2 C2 D2 E2 | F3 E/D/ C2 D2- | %22
w: par ri- ches-|* se'ung aul- tre|_ _ _ _ _ l'a|con- qui- *|se, ver- tu n'a|pas, _ _ _ en|
 D2 F4 F2 | F2 E2 D4- | D2 B,2 C4 | A,3 B, C4 | z2 C2 D2 E2 | F3 E/D/ C2 D2- | D2 F4 F2 | %29
w: _ a- mour,|grant prou- es-||* * se,|ver- tu n'a|pas, _ _ _ en|_ a- mour,|
 F2 E2 D4- | D2 B,2 C4 | A,8 |] %32
w: grant prou- es-||se|
V:3
 F4 A2 A2 | F2 F2 B2 B2 | A2 F2 c4 | A4 z2 F2 | G2 A2 B2 c2 | A6 A2 | B2 c2 d4 | c3 B A2 B2- | %8
w: Maul- dic- te|soit la mon- dai-|ne ri- ches-|se, qui|m'a os- té ma|da- me|et mais- tres-||
 BA F2 G4 | F4 z2 c2- | c2 c2 BABc | d4 c4 | z2 c2 B2 A2 | AGAB c2 d2- | d2 c2 B4 | A4 z2 A2 | %16
w: |se, las-|* par ver- * * *|* tu,|ia son a-|my- * * * * ti-|* é qui-|te, mais,|
 A2 A2 d2 d2 | c2 c2 B2 c2- | c2 B2 A4 | G4 z2 F2 | G2 A2 B2 c2 | A6 A2 | B2 c2 d4 | c3 B A2 B2- | %24
w: par ri- ches- se'ung|aul- tre l'a con-|* * qui-|se, ver-|tu n'a pas, en|a- mour,|grant prou- es-||
 BA F2 G4 | F4 z2 F2 | G2 A2 B2 c2 | A6 A2 | B2 c2 d4 | c3 B A2 B2- | BA F2 G4 | F8 |] %32
w: |se, ver-|tu n'a pas, en|a- mour,|grant prou- es-|||se.|
V:4
 F,4 F,2 F,2 | B,,6 B,,2 | D,2 D,2 C,2 C,2 | F,3 E, D,4 | C,4 z2 C,2 | D,3 E, F,2 D,2 | %6
w: Maul- dic- te|soit la|mon- dai- ne ri-|ches- * *|se, qui|m'a _ _ os-|
 G,2 F,2 B,,C,D,E, | F,2 C,2 D,2 G,,2 | D,4 C,4 | F,,2 F,4 F,2 | C,D,E,F, G,4 | D,4 z2 F,2 | %12
w: té ma da- * * *|* me et mais-|tres- *|se, las, par|ver- * * * *|tu, iay|
 E,2 C,2 D,4- | D,2 D,2 C,2 B,,2- | B,,2 C,2 D,2 G,,2 | D,4 z2 D,2 | D,2 D,2 B,,2 B,,2 | %17
w: son my- ti-|* é _ _|_ _ _ qui-|te, mais,|par ri- ches- se'ung|
 F,2 F,2 G,2 F,2- | F,2 G,2 D,2 F,2 | _E,2 C,2 D,4 | C,4 z2 C,2 | D,3 E, F,2 D,2 | %22
w: aul- tre l'a con-|* qui- * *||se, ver-|tu n'a pas, en|
 G,2 F,2 B,,C,D,E, | F,2 C,2 D,2 G,,2 | D,4 C,4 | F,,8 | z4 z2 C,2 | D,3 E, F,2 D,2 | %28
w: a- mour, grant _ _ _|_ prou- es- *||se,|ver-|tu n'a pas, en|
 G,2 F,2 B,,C,D,E, | F,2 C,2 D,2 G,,2 | D,4 C,4 | F,,8 |] %32
w: a- mour, grant _ _ _|_ prou- es- *||se.|

